packages/icons/src/gitops-gnupg-key-blue.svg

<svg fill="none" viewBox="0 0 64 64" xmlns="http://www.w3.org/2000/svg"><path clip-rule="evenodd" d="m41.9911 10.0039c-6.6274 0-12 5.3726-12 12s5.3726 12 12 12 12-5.3726 12-12-5.3726-12-12-12zm-16 12c0-8.8365 7.1634-15.99999 16-15.99999 8.8365 0 16 7.16349 16 15.99999 0 8.8366-7.1635 16-16 16-2.1752 0-4.249-.4341-6.1396-1.2203v5.2295c0 1.1046-.8954 2-2 2h-5.8209v3.59c0 .5304-.2107 1.0391-.5858 1.4142s-.8838.5858-1.4142.5858h-4.0398v4.6153c0 1.1046-.8954 2-2 2h-11.16914c-1.10453 0-1.99994-.8953-2-1.9998l-.00037-6.6153c-.00003-.5304.21069-1.0392.58579-1.4143l19.33292-19.333c-.4864-1.5304-.7489-3.1606-.7489-4.8521zm2.5651 8.6928-17.7349 17.7349.0002 3.7868h7.1693v-4.6153c0-1.1046.8955-2 2-2h4.0398v-3.59c0-1.1046.8954-2 2-2h5.8209v-5.6316c-1.279-1.049-2.3924-2.2923-3.2953-3.6848zm15.0247-13.5345c-1.6568 0-3 1.3432-3 3 0 1.6569 1.3432 3 3 3 1.6569 0 3-1.3431 3-3 0-1.6568-1.3431-3-3-3zm-7 3c0-3.866 3.134-7 7-7s7 3.134 7 7-3.134 7-7 7-7-3.134-7-7z" fill="#0278d5" fill-rule="evenodd"/></svg>

<svg viewBox="0 0 64 64" fill="none" xmlns="http://www.w3.org/2000/svg">
<path fill-rule="evenodd" clip-rule="evenodd" d="M41.9911 10.0039C35.3637 10.0039 29.9911 15.3765 29.9911 22.0039C29.9911 28.6313 35.3637 34.0039 41.9911 34.0039C48.6185 34.0039 53.9911 28.6313 53.9911 22.0039C53.9911 15.3765 48.6185 10.0039 41.9911 10.0039ZM25.9911 22.0039C25.9911 13.1674 33.1545 6.00391 41.9911 6.00391C50.8276 6.00391 57.9911 13.1674 57.9911 22.0039C57.9911 30.8405 50.8276 38.0039 41.9911 38.0039C39.8159 38.0039 37.7421 37.5698 35.8515 36.7836L35.8515 42.0131C35.8515 43.1177 34.9561 44.0131 33.8515 44.0131L28.0306 44.0131L28.0306 47.6031C28.0306 48.1335 27.8199 48.6422 27.4448 49.0173C27.0697 49.3924 26.561 49.6031 26.0306 49.6031H21.9908V54.2184C21.9908 55.323 21.0954 56.2184 19.9908 56.2184H8.82166C7.71713 56.2184 6.82172 55.3231 6.82166 54.2186L6.82129 47.6033C6.82126 47.0729 7.03198 46.5641 7.40708 46.189L26.74 26.856C26.2536 25.3256 25.9911 23.6954 25.9911 22.0039ZM28.5562 30.6967L10.8213 48.4316L10.8215 52.2184H17.9908L17.9908 47.6031C17.9908 46.4985 18.8863 45.6031 19.9908 45.6031H24.0306L24.0306 42.0131C24.0306 40.9085 24.926 40.0131 26.0306 40.0131H31.8515V34.3815C30.5725 33.3325 29.4591 32.0892 28.5562 30.6967ZM43.5809 17.1622C41.9241 17.1622 40.5809 18.5054 40.5809 20.1622C40.5809 21.8191 41.9241 23.1622 43.5809 23.1622C45.2378 23.1622 46.5809 21.8191 46.5809 20.1622C46.5809 18.5054 45.2378 17.1622 43.5809 17.1622ZM36.5809 20.1622C36.5809 16.2962 39.7149 13.1622 43.5809 13.1622C47.4469 13.1622 50.5809 16.2962 50.5809 20.1622C50.5809 24.0282 47.4469 27.1622 43.5809 27.1622C39.7149 27.1622 36.5809 24.0282 36.5809 20.1622Z" fill="#0278D5"/>
</svg>
